svg/human/humanBody/hair_kit/hair12.svg

<svg class="hair" width="75.51715087890625" height="84.2266845703125" viewBox="756.739 1563.52 75.5172 84.2267" xmlns="http://www.w3.org/2000/svg"><path class="hair" id="path2176" style="fill:#f0ef1d;fill-opacity:1;fill-rule:nonzero;stroke:none" d="m 6196.88,7243.3 h 14.73 l 2.67,229.4 c -5.17,-29 -17.47,-62.6 -34.7,-85.7 -54.28,-72.7 -100.48,-68.1 -130.5,-80.8 -11.11,-4.7 -20.23,-8.8 -31.92,-14 l -1.99,-7.7 c 0,-16.9 -10.59,-31.7 -26.94,-41.2 h 73.2 l 1.02,1.6 12.69,20.8 11.63,-21.4 0.57,-1 h 33.04 l 14.65,40.3 13.98,-40.3 h 31.18 l 8.82,14.4 7.87,-14.4" transform="matrix(0.13333330353101047, 0, 0, -0.13333330353101047, 0, 2613.333251953125)"/><path class="hair" id="path2178" style="fill:#f0ef1d;fill-opacity:1;fill-rule:nonzero;stroke:none" d="m 5880.32,7283.1 v 7.8 c -10.46,4.7 -20.45,9.7 -30.49,14 -30.03,12.7 -76.22,8 -130.5,80.8 -23.47,31.4 -37.98,75.3 -41.13,113.6 l 2.67,-257.4 h 13.18 l 8.83,14.5 7.85,-14.5 h 72.48 l 0.21,0.4 12.68,20.7 11.49,-21.1 h 99.46 c -16.26,9.5 -26.73,24.3 -26.73,41.2" transform="matrix(0.13333330353101047, 0, 0, -0.13333330353101047, 0, 2613.333251953125)"/><path class="hair" id="path2180" style="fill:#f0ef1d;fill-opacity:1;fill-rule:nonzero;stroke:none" d="m 5679.53,7585.9 c 0,0 12.65,92 81.24,133.2 73.25,43.9 153.18,-21.3 190.46,-54.6 0,0 98.56,87.9 179.8,50.6 39.35,-18.1 71.84,-56.5 83.91,-125.2 0,0 26.98,271.7 -267.37,239.7 0,0 -272.03,44 -268.04,-243.7" transform="matrix(0.13333330353101047, 0, 0, -0.13333330353101047, 0, 2613.333251953125)"/></svg>

<svg class="hair" width="75.51715087890625" height="84.2266845703125" viewBox="756.739 1563.52 75.5172 84.2267" xmlns="http://www.w3.org/2000/svg"><path class="hair" id="path2176" style="fill:#f0ef1d;fill-opacity:1;fill-rule:nonzero;stroke:none" d="M 6196.88 7243.3 L 6211.61 7243.3 L 6214.28 7472.7 C 6209.11 7443.7 6196.81 7410.1 6179.58 7387 C 6125.3 7314.3 6079.1 7318.9 6049.08 7306.2 C 6037.97 7301.5 6028.85 7297.4 6017.16 7292.2 L 6015.17 7284.5 C 6015.17 7267.6 6014.703 7271.022 6022.649 7248.362 L 6061.43 7243.3 L 6062.45 7244.9 L 6075.14 7265.7 L 6086.77 7244.3 L 6087.34 7243.3 L 6120.38 7243.3 L 6135.03 7283.6 L 6149.01 7243.3 L 6180.19 7243.3 L 6189.01 7257.7 L 6196.88 7243.3" transform="matrix(0.13333330353101047, 0, 0, -0.13333330353101047, 0, 2613.333251953125)"/><path class="hair" id="path2178" style="fill:#f0ef1d;fill-opacity:1;fill-rule:nonzero;stroke:none" d="M 5880.32 7283.1 L 5880.32 7290.9 C 5869.86 7295.6 5859.87 7300.6 5849.83 7304.9 C 5819.8 7317.6 5773.61 7312.9 5719.33 7385.7 C 5695.86 7417.1 5681.35 7461 5678.2 7499.3 L 5680.87 7241.9 L 5694.05 7241.9 L 5702.88 7256.4 L 5710.73 7241.9 L 5783.21 7241.9 L 5783.42 7242.3 L 5796.1 7263 L 5807.59 7241.9 L 5868.582 7249.998 C 5879.655 7275.696 5880.32 7266.2 5880.32 7283.1" transform="matrix(0.13333330353101047, 0, 0, -0.13333330353101047, 0, 2613.333251953125)"/><path class="hair" id="path2180" style="fill:#f0ef1d;fill-opacity:1;fill-rule:nonzero;stroke:none" d="M 5679.53 7585.9 C 5679.53 7585.9 5692.18 7677.9 5760.77 7719.1 C 5834.02 7763 5913.95 7697.8 5951.23 7664.5 C 5951.23 7664.5 6049.79 7752.4 6131.03 7715.1 C 6170.38 7697 6202.87 7658.6 6214.94 7589.9 C 6214.94 7589.9 6241.92 7861.6 5947.57 7829.6 C 5947.57 7829.6 5675.54 7873.6 5679.53 7585.9" transform="matrix(0.13333330353101047, 0, 0, -0.13333330353101047, 0, 2613.333251953125)"/></svg>
